; generated by PrusaSlicer 2.0.0+win64 on 2020-03-11 at 13:51:27

; 

; external perimeters extrusion width = 0.60mm
; perimeters extrusion width = 0.50mm
; infill extrusion width = 0.50mm
; solid infill extrusion width = 0.50mm
; top infill extrusion width = 0.45mm
; first layer extrusion width = 0.42mm

M73 P0 R25
M73 Q0 S25
M201 X1000 Y1000 Z1000 E5000 ; sets maximum accelerations, mm/sec^2
M203 X200 Y200 Z12 E120 ; sets maximum feedrates, mm/sec
M204 P1250 R1250 T1250 ; sets acceleration (P, T) and retract acceleration (R), mm/sec^2
M205 X8.00 Y8.00 Z0.40 E1.50 ; sets the jerk limits, mm/sec
M205 S0 T0 ; sets the minimum extruding and travel feed rate, mm/sec
M107
M115 U3.7.2 ; tell printer latest fw version
G90 ; use absolute coordinates
M83 ; extruder relative mode
M104 S230 ; set extruder temp
M140 S85 ; set bed temp
Tx
M190 S85 ; wait for bed temp
M109 S230 ; wait for extruder temp
G28 W ; home all without mesh bed level
G80 ; mesh bed leveling

G21 ; set units to millimeters

;go outside print area
G1 Y-3.0 F1000.0
G1 Z0.4 F1000.0
; select extruder
Tc
; purge line
G1 X55.0 F2000.0
G1 Z0.3 F1000.0
G92 E0.0
G1 X240.0 E25.0 F2200.0
M73 Q0 S25
M73 P0 R25
G1 Y-2.0 F1000.0
G1 X55.0 E25 F1400.0
G1 Z0.20 F1000.0
G1 X5.0 E4.0 F1000.0

M221 S95
G92 E0.0
M900 K45 ; Filament gcode
G21 ; set units to millimeters
G90 ; use absolute coordinates
M83 ; use relative distances for extrusion
;BEFORE_LAYER_CHANGE
G92 E0.0
;0.2


G1 E-0.80000 F2100.00000
G1 Z0.600 F10800.000
;AFTER_LAYER_CHANGE
;0.2
G1 X101.828 Y52.296
G1 Z0.200
G1 E0.80000 F2100.00000
M204 S1000
G1 F1200
G1 X102.533 Y52.764 E0.02653
G1 X181.566 Y131.797 E3.50445
G1 X181.907 Y132.238 E0.01749
G1 X182.149 Y132.844 E0.02044
G1 X182.202 Y133.493 E0.02044
G1 X182.061 Y134.130 E0.02044
G1 X181.739 Y134.697 E0.02044
G1 X169.312 Y150.246 E0.62412
G1 X162.907 Y156.659 E0.28419
G1 X162.476 Y156.990 E0.01703
G1 X161.818 Y157.244 E0.02213
G1 X161.109 Y157.274 E0.02225
G1 X160.427 Y157.076 E0.02225
G1 X159.845 Y156.671 E0.02225
G1 X80.796 Y77.622 E3.50514
G1 X80.455 Y77.181 E0.01749
G1 X80.220 Y76.604 E0.01953
G1 X80.157 Y75.985 E0.01953
G1 X80.270 Y75.376 E0.01942
G1 X80.551 Y74.820 E0.01953
G1 X93.015 Y59.216 E0.62618
G1 X99.540 Y52.681 E0.28957
G1 X100.215 Y52.272 E0.02473
G1 X100.995 Y52.130 E0.02484
G1 X101.769 Y52.284 E0.02476
G1 F8640
G1 X102.533 Y52.764 E-0.20827
G1 X104.222 Y54.454 E-0.55173
G1 E-0.04000 F2100.00000
G1 Z0.800 F10800.000
G1 X100.992 Y55.149
G1 Z0.200
G1 E0.80000 F2100.00000
G1 F1200
G1 X179.188 Y133.345 E3.46734
G1 X173.732 Y138.801 E0.24192
G1 X95.536 Y60.605 E3.46734
G1 X100.950 Y55.191 E0.24004
G1 X100.992 Y54.615 F10800.000
G1 F1200
G1 X179.721 Y133.345 E3.49099
G1 X173.732 Y139.334 E0.26557
G1 X95.003 Y60.605 E3.49099
G1 X100.950 Y54.658 E0.26369
G1 X101.268 Y54.905 F10800.000
G1 F8640
G1 X103.278 Y56.984 E-0.76000
G1 E-0.04000 F2100.00000
G1 Z0.800 F10800.000
G1 X95.823 Y60.478
G1 Z0.200
G1 E0.80000 F2100.00000
G1 F1200
G1 X173.739 Y138.394 E3.62990
G1 X174.019 Y138.114 E0.01305
G1 X96.223 Y60.318 E3.62431
M73 Q4 S24
M73 P4 R24
G1 X96.503 Y60.038 E0.01305
G1 X174.299 Y137.834 E3.62431
G1 X174.579 Y137.554 E0.01305
G1 X96.783 Y59.757 E3.62431
G1 X97.063 Y59.477 E0.01305
G1 X174.859 Y137.273 E3.62431
G1 X175.140 Y136.993 E0.01305
G1 X97.344 Y59.197 E3.62431
G1 X97.624 Y58.917 E0.01305
G1 X175.420 Y136.713 E3.62431
G1 X175.700 Y136.433 E0.01305
G1 X97.904 Y58.637 E3.62431
G1 X98.184 Y58.357 E0.01305
G1 X175.980 Y136.153 E3.62431
G1 X176.260 Y135.873 E0.01305
G1 X98.464 Y58.077 E3.62431
G1 X98.744 Y57.796 E0.01305
G1 X176.540 Y135.593 E3.62431
G1 X176.820 Y135.312 E0.01305
G1 X99.024 Y57.516 E3.62431
G1 X99.304 Y57.236 E0.01305
G1 X177.101 Y135.032 E3.62431
M73 Q8 S23
M73 P8 R23
G1 X177.381 Y134.752 E0.01305
G1 X99.585 Y56.956 E3.62431
G1 X99.865 Y56.676 E0.01305
G1 X177.661 Y134.472 E3.62431
G1 X177.941 Y134.192 E0.01305
G1 X100.145 Y56.396 E3.62431
G1 X100.425 Y56.116 E0.01305
G1 X178.221 Y133.912 E3.62431
G1 X178.501 Y133.632 E0.01305
G1 X100.705 Y55.835 E3.62431
G1 X100.985 Y55.555 E0.01305
G1 X178.901 Y133.471 E3.62990
G1 F8640
G1 X176.574 Y131.144 E-0.76000
G1 E-0.04000 F2100.00000
G1 Z0.800 F10800.000
G1 X166.826 Y148.815
G1 Z0.200
G1 E0.80000 F2100.00000
G1 F1200
G1 X161.370 Y154.271 E0.24192
G1 X83.174 Y76.075 E3.46734
G1 X88.630 Y70.619 E0.24192
G1 X166.784 Y148.773 E3.46546
G1 X167.359 Y148.815 F10800.000
G1 F1200
G1 X161.370 Y154.804 E0.26557
G1 X82.641 Y76.075 E3.49099
G1 X88.630 Y70.086 E0.26557
G1 X167.317 Y148.773 E3.48911
G1 X166.976 Y148.928 F10800.000
G1 X166.539 Y148.942
G1 F1200
G1 X88.623 Y71.026 E3.62990
M73 Q12 S22
M73 P12 R22
G1 X88.343 Y71.306 E0.01305
G1 X166.139 Y149.102 E3.62431
G1 X165.859 Y149.382 E0.01305
G1 X88.063 Y71.586 E3.62431
G1 X87.783 Y71.866 E0.01305
G1 X165.579 Y149.662 E3.62431
G1 X165.299 Y149.942 E0.01305
G1 X87.503 Y72.146 E3.62431
G1 X87.222 Y72.426 E0.01305
G1 X165.019 Y150.223 E3.62431
G1 X164.738 Y150.503 E0.01305
G1 X86.942 Y72.707 E3.62431
G1 X86.662 Y72.987 E0.01305
G1 X164.458 Y150.783 E3.62431
G1 X164.178 Y151.063 E0.01305
G1 X86.382 Y73.267 E3.62431
G1 X86.102 Y73.547 E0.01305
G1 X163.898 Y151.343 E3.62431
G1 X163.618 Y151.623 E0.01305
G1 X85.822 Y73.827 E3.62431
G1 X85.542 Y74.107 E0.01305
G1 X163.338 Y151.903 E3.62431
M73 Q16 S21
M73 P16 R21
G1 X163.058 Y152.183 E0.01305
G1 X85.262 Y74.387 E3.62431
G1 X84.981 Y74.668 E0.01305
G1 X162.777 Y152.464 E3.62431
G1 X162.497 Y152.744 E0.01305
G1 X84.701 Y74.948 E3.62431
G1 X84.421 Y75.228 E0.01305
G1 X162.217 Y153.024 E3.62431
G1 X161.937 Y153.304 E0.01305
G1 X84.141 Y75.508 E3.62431
G1 X83.861 Y75.788 E0.01305
G1 X161.657 Y153.584 E3.62431
G1 X161.377 Y153.864 E0.01305
G1 X83.461 Y75.948 E3.62990
;BEFORE_LAYER_CHANGE
G92 E0.0
;0.5


G1 F8640
G1 X85.788 Y78.276 E-0.76000
G1 E-0.04000 F2100.00000
G1 Z0.800 F10800.000
;AFTER_LAYER_CHANGE
;0.5
M104 S240 ; set temperature
M140 S90 ; set bed temperature
G1 X80.220 Y76.604
G1 Z0.500
G1 E0.80000 F2100.00000
G1 F2700
G1 X80.157 Y75.985 E0.02763
G1 X80.270 Y75.376 E0.02747
G1 X80.551 Y74.820 E0.02763
G1 X93.015 Y59.216 E0.88581
G1 X99.540 Y52.681 E0.40963
G1 X100.215 Y52.272 E0.03499
G1 X100.995 Y52.130 E0.03514
G1 X101.828 Y52.296 E0.03769
G1 X102.533 Y52.764 E0.03753
G1 X181.566 Y131.797 E4.95752
G1 X181.907 Y132.238 E0.02474
G1 X182.149 Y132.844 E0.02891
G1 X182.202 Y133.493 E0.02891
G1 X182.061 Y134.130 E0.02891
G1 X181.739 Y134.697 E0.02891
G1 X169.312 Y150.246 E0.88289
G1 X162.907 Y156.659 E0.40202
G1 X162.476 Y156.990 E0.02409
G1 X161.818 Y157.244 E0.03131
G1 X161.109 Y157.274 E0.03147
G1 X160.427 Y157.076 E0.03147
G1 X159.845 Y156.671 E0.03147
G1 X80.796 Y77.622 E4.95849
G1 X80.455 Y77.181 E0.02474
G1 X80.243 Y76.660 E0.02497
G1 F8640
G1 X80.157 Y75.985 E-0.15716
G1 X80.270 Y75.376 E-0.14298
G1 X80.551 Y74.820 E-0.14382
G1 X81.405 Y73.751 E-0.31604
G1 E-0.04000 F2100.00000
G1 Z1.100 F10800.000
G1 X95.817 Y60.605
G1 Z0.500
G1 E0.80000 F2100.00000
M204 S800
G1 F3000
G1 X100.992 Y55.429 E0.39765
G1 X178.907 Y133.345 E5.98687
G1 X173.732 Y138.520 E0.39765
G1 X95.859 Y60.647 E5.98361
M204 S1000
G1 X95.130 Y60.605 F10800.000
M204 S800
G1 F2100
G1 X100.992 Y54.743 E0.55382
G1 X179.594 Y133.345 E7.42609
G1 X173.732 Y139.207 E0.55382
G1 X95.173 Y60.647 E7.42208
M204 S1000
G1 X95.514 Y60.491 F10800.000
G1 X96.141 Y60.744
M204 S1250
G1 F3666.43
G1 X100.992 Y55.892 E0.37346
G1 X101.301 Y56.200 E0.02375
G1 X96.588 Y60.914 E0.36279
G1 X96.897 Y61.222 E0.02375
G1 X101.610 Y56.509 E0.36279
G1 X101.918 Y56.818 E0.02375
G1 X97.205 Y61.531 E0.36279
G1 X97.514 Y61.839 E0.02375
G1 X102.227 Y57.126 E0.36279
G1 X102.535 Y57.435 E0.02375
G1 X97.822 Y62.148 E0.36279
G1 X98.131 Y62.456 E0.02375
G1 X102.844 Y57.743 E0.36279
G1 X103.153 Y58.052 E0.02375
G1 X98.439 Y62.765 E0.36279
G1 X98.748 Y63.074 E0.02375
G1 X103.461 Y58.360 E0.36279
G1 X103.770 Y58.669 E0.02375
G1 X99.057 Y63.382 E0.36279
G1 X99.365 Y63.691 E0.02375
G1 X104.078 Y58.978 E0.36279
M73 Q20 S20
M73 P20 R20
G1 X104.387 Y59.286 E0.02375
G1 X99.674 Y63.999 E0.36279
G1 X99.982 Y64.308 E0.02375
G1 X104.695 Y59.595 E0.36279
G1 X105.004 Y59.903 E0.02375
G1 X100.291 Y64.616 E0.36279
G1 X100.599 Y64.925 E0.02375
G1 X105.313 Y60.212 E0.36279
G1 X105.621 Y60.520 E0.02375
G1 X100.908 Y65.234 E0.36279
G1 X101.217 Y65.542 E0.02375
G1 X105.930 Y60.829 E0.36279
G1 X106.238 Y61.138 E0.02375
G1 X101.525 Y65.851 E0.36279
G1 X101.834 Y66.159 E0.02375
G1 X106.547 Y61.446 E0.36279
G1 X106.855 Y61.755 E0.02375
G1 X102.142 Y66.468 E0.36279
G1 X102.451 Y66.776 E0.02375
G1 X107.164 Y62.063 E0.36279
G1 X107.473 Y62.372 E0.02375
G1 X102.759 Y67.085 E0.36279
G1 X103.068 Y67.394 E0.02375
G1 X107.781 Y62.680 E0.36279
G1 X108.090 Y62.989 E0.02375
G1 X103.377 Y67.702 E0.36279
G1 X103.685 Y68.011 E0.02375
G1 X108.398 Y63.298 E0.36279
G1 X108.707 Y63.606 E0.02375
G1 X103.994 Y68.319 E0.36279
G1 X104.302 Y68.628 E0.02375
G1 X109.015 Y63.915 E0.36279
G1 X109.324 Y64.223 E0.02375
G1 X104.611 Y68.936 E0.36279
G1 X104.919 Y69.245 E0.02375
G1 X109.633 Y64.532 E0.36279
G1 X109.941 Y64.841 E0.02375
G1 X105.228 Y69.554 E0.36279
G1 X105.537 Y69.862 E0.02375
G1 X110.250 Y65.149 E0.36279
G1 X110.558 Y65.458 E0.02375
G1 X105.845 Y70.171 E0.36279
G1 X106.154 Y70.479 E0.02375
G1 X110.867 Y65.766 E0.36279
G1 X111.175 Y66.075 E0.02375
G1 X106.462 Y70.788 E0.36279
G1 X106.771 Y71.097 E0.02375
G1 X111.484 Y66.383 E0.36279
G1 X111.793 Y66.692 E0.02375
G1 X107.080 Y71.405 E0.36279
G1 X107.388 Y71.714 E0.02375
G1 X112.101 Y67.001 E0.36279
G1 X112.410 Y67.309 E0.02375
G1 X107.697 Y72.022 E0.36279
G1 X108.005 Y72.331 E0.02375
G1 X112.718 Y67.618 E0.36279
G1 X113.027 Y67.926 E0.02375
G1 X108.314 Y72.639 E0.36279
G1 X108.622 Y72.948 E0.02375
G1 X113.336 Y68.235 E0.36279
G1 X113.644 Y68.543 E0.02375
G1 X108.931 Y73.257 E0.36279
G1 X109.240 Y73.565 E0.02375
G1 X113.953 Y68.852 E0.36279
G1 X114.261 Y69.161 E0.02375
G1 X109.548 Y73.874 E0.36279
G1 X109.857 Y74.182 E0.02375
G1 X114.570 Y69.469 E0.36279
G1 X114.878 Y69.778 E0.02375
G1 X110.165 Y74.491 E0.36279
G1 X110.474 Y74.799 E0.02375
G1 X115.187 Y70.086 E0.36279
G1 X115.496 Y70.395 E0.02375
G1 X110.782 Y75.108 E0.36279
G1 X111.091 Y75.417 E0.02375
G1 X115.804 Y70.703 E0.36279
G1 X116.113 Y71.012 E0.02375
G1 X111.400 Y75.725 E0.36279
G1 X111.708 Y76.034 E0.02375
G1 X116.421 Y71.321 E0.36279
G1 X116.730 Y71.629 E0.02375
G1 X112.017 Y76.342 E0.36279
G1 X112.325 Y76.651 E0.02375
G1 X117.038 Y71.938 E0.36279
G1 X117.347 Y72.246 E0.02375
G1 X112.634 Y76.959 E0.36279
G1 X112.942 Y77.268 E0.02375
G1 X117.656 Y72.555 E0.36279
G1 X117.964 Y72.863 E0.02375
G1 X113.251 Y77.577 E0.36279
G1 X113.560 Y77.885 E0.02375
G1 X118.273 Y73.172 E0.36279
G1 X118.581 Y73.481 E0.02375
G1 X113.868 Y78.194 E0.36279
G1 X114.177 Y78.502 E0.02375
G1 X118.890 Y73.789 E0.36279
G1 X119.198 Y74.098 E0.02375
G1 X114.485 Y78.811 E0.36279
G1 X114.794 Y79.119 E0.02375
G1 X119.507 Y74.406 E0.36279
G1 X119.816 Y74.715 E0.02375
G1 X115.102 Y79.428 E0.36279
G1 X115.411 Y79.737 E0.02375
G1 X120.124 Y75.024 E0.36279
G1 X120.433 Y75.332 E0.02375
G1 X115.720 Y80.045 E0.36279
G1 X116.028 Y80.354 E0.02375
G1 X120.741 Y75.641 E0.36279
G1 X121.050 Y75.949 E0.02375
G1 X116.337 Y80.662 E0.36279
G1 X116.645 Y80.971 E0.02375
G1 X121.358 Y76.258 E0.36279
G1 X121.667 Y76.566 E0.02375
G1 X116.954 Y81.280 E0.36279
G1 X117.263 Y81.588 E0.02375
G1 X121.976 Y76.875 E0.36279
G1 X122.284 Y77.184 E0.02375
G1 X117.571 Y81.897 E0.36279
G1 X117.880 Y82.205 E0.02375
G1 X122.593 Y77.492 E0.36279
G1 X122.901 Y77.801 E0.02375
G1 X118.188 Y82.514 E0.36279
G1 X118.497 Y82.822 E0.02375
G1 X123.210 Y78.109 E0.36279
G1 X123.519 Y78.418 E0.02375
G1 X118.805 Y83.131 E0.36279
G1 X119.114 Y83.440 E0.02375
G1 X123.827 Y78.726 E0.36279
G1 X124.136 Y79.035 E0.02375
G1 X119.423 Y83.748 E0.36279
G1 X119.731 Y84.057 E0.02375
G1 X124.444 Y79.344 E0.36279
G1 X124.753 Y79.652 E0.02375
G1 X120.040 Y84.365 E0.36279
G1 X120.348 Y84.674 E0.02375
G1 X125.061 Y79.961 E0.36279
G1 X125.370 Y80.269 E0.02375
G1 X120.657 Y84.982 E0.36279
G1 X120.965 Y85.291 E0.02375
G1 X125.679 Y80.578 E0.36279
G1 X125.987 Y80.886 E0.02375
G1 X121.274 Y85.600 E0.36279
G1 X121.583 Y85.908 E0.02375
G1 X126.296 Y81.195 E0.36279
G1 X126.604 Y81.504 E0.02375
G1 X121.891 Y86.217 E0.36279
G1 X122.200 Y86.525 E0.02375
G1 X126.913 Y81.812 E0.36279
G1 X127.221 Y82.121 E0.02375
G1 X122.508 Y86.834 E0.36279
G1 X122.817 Y87.142 E0.02375
G1 X127.530 Y82.429 E0.36279
G1 X127.839 Y82.738 E0.02375
G1 X123.125 Y87.451 E0.36279
G1 X123.434 Y87.760 E0.02375
G1 X128.147 Y83.046 E0.36279
G1 X128.456 Y83.355 E0.02375
G1 X123.743 Y88.068 E0.36279
G1 X124.051 Y88.377 E0.02375
G1 X128.764 Y83.664 E0.36279
G1 X129.073 Y83.972 E0.02375
G1 X124.360 Y88.685 E0.36279
G1 X124.668 Y88.994 E0.02375
G1 X129.381 Y84.281 E0.36279
G1 X129.690 Y84.589 E0.02375
G1 X124.977 Y89.302 E0.36279
G1 X125.285 Y89.611 E0.02375
G1 X129.999 Y84.898 E0.36279
G1 X130.307 Y85.207 E0.02375
G1 X125.594 Y89.920 E0.36279
G1 X125.903 Y90.228 E0.02375
G1 X130.616 Y85.515 E0.36279
G1 X130.924 Y85.824 E0.02375
G1 X126.211 Y90.537 E0.36279
G1 X126.520 Y90.845 E0.02375
G1 X131.233 Y86.132 E0.36279
G1 X131.541 Y86.441 E0.02375
G1 X126.828 Y91.154 E0.36279
G1 X127.137 Y91.463 E0.02375
G1 X131.850 Y86.749 E0.36279
G1 X132.159 Y87.058 E0.02375
G1 X127.446 Y91.771 E0.36279
G1 X127.754 Y92.080 E0.02375
G1 X132.467 Y87.367 E0.36279
G1 X132.776 Y87.675 E0.02375
G1 X128.063 Y92.388 E0.36279
G1 X128.371 Y92.697 E0.02375
G1 X133.084 Y87.984 E0.36279
G1 X133.393 Y88.292 E0.02375
G1 X128.680 Y93.005 E0.36279
G1 X128.988 Y93.314 E0.02375
G1 X133.702 Y88.601 E0.36279
G1 X134.010 Y88.909 E0.02375
G1 X129.297 Y93.623 E0.36279
G1 X129.606 Y93.931 E0.02375
G1 X134.319 Y89.218 E0.36279
G1 X134.627 Y89.527 E0.02375
G1 X129.914 Y94.240 E0.36279
G1 X130.223 Y94.548 E0.02375
G1 X134.936 Y89.835 E0.36279
G1 X135.244 Y90.144 E0.02375
G1 X130.531 Y94.857 E0.36279
G1 X130.840 Y95.165 E0.02375
G1 X135.553 Y90.452 E0.36279
G1 X135.862 Y90.761 E0.02375
G1 X131.148 Y95.474 E0.36279
G1 X131.457 Y95.783 E0.02375
G1 X136.170 Y91.069 E0.36279
G1 X136.479 Y91.378 E0.02375
G1 X131.766 Y96.091 E0.36279
G1 X132.074 Y96.400 E0.02375
G1 X136.787 Y91.687 E0.36279
G1 X137.096 Y91.995 E0.02375
G1 X132.383 Y96.708 E0.36279
G1 X132.691 Y97.017 E0.02375
G1 X137.404 Y92.304 E0.36279
G1 X137.713 Y92.612 E0.02375
G1 X133.000 Y97.325 E0.36279
G1 X133.308 Y97.634 E0.02375
G1 X138.022 Y92.921 E0.36279
G1 X138.330 Y93.229 E0.02375
G1 X133.617 Y97.943 E0.36279
G1 X133.926 Y98.251 E0.02375
G1 X138.639 Y93.538 E0.36279
G1 X138.947 Y93.847 E0.02375
G1 X134.234 Y98.560 E0.36279
G1 X134.543 Y98.868 E0.02375
G1 X139.256 Y94.155 E0.36279
G1 X139.564 Y94.464 E0.02375
G1 X134.851 Y99.177 E0.36279
G1 X135.160 Y99.485 E0.02375
G1 X139.873 Y94.772 E0.36279
G1 X140.182 Y95.081 E0.02375
G1 X135.468 Y99.794 E0.36279
G1 X135.777 Y100.103 E0.02375
G1 X140.490 Y95.390 E0.36279
G1 X140.799 Y95.698 E0.02375
G1 X136.086 Y100.411 E0.36279
G1 X136.394 Y100.720 E0.02375
G1 X141.107 Y96.007 E0.36279
G1 X141.416 Y96.315 E0.02375
G1 X136.703 Y101.028 E0.36279
G1 X137.011 Y101.337 E0.02375
G1 X141.724 Y96.624 E0.36279
G1 X142.033 Y96.932 E0.02375
G1 X137.320 Y101.646 E0.36279
G1 X137.629 Y101.954 E0.02375
G1 X142.342 Y97.241 E0.36279
G1 X142.650 Y97.550 E0.02375
G1 X137.937 Y102.263 E0.36279
G1 X138.246 Y102.571 E0.02375
G1 X142.959 Y97.858 E0.36279
G1 X143.267 Y98.167 E0.02375
G1 X138.554 Y102.880 E0.36279
G1 X138.863 Y103.188 E0.02375
G1 X143.576 Y98.475 E0.36279
G1 X143.885 Y98.784 E0.02375
G1 X139.171 Y103.497 E0.36279
G1 X139.480 Y103.806 E0.02375
G1 X144.193 Y99.092 E0.36279
G1 X144.502 Y99.401 E0.02375
G1 X139.789 Y104.114 E0.36279
G1 X140.097 Y104.423 E0.02375
G1 X144.810 Y99.710 E0.36279
G1 X145.119 Y100.018 E0.02375
G1 X140.406 Y104.731 E0.36279
G1 X140.714 Y105.040 E0.02375
G1 X145.427 Y100.327 E0.36279
G1 X145.736 Y100.635 E0.02375
G1 X141.023 Y105.348 E0.36279
G1 X141.331 Y105.657 E0.02375
G1 X146.045 Y100.944 E0.36279
G1 X146.353 Y101.252 E0.02375
G1 X141.640 Y105.966 E0.36279
G1 X141.949 Y106.274 E0.02375
G1 X146.662 Y101.561 E0.36279
G1 X146.970 Y101.870 E0.02375
